lib/logo_tmp/nrk-logo-nrk-super.svg

<svg width="55" height="18" viewBox="0 0 55 18" fill="none" xmlns="http://www.w3.org/2000/svg">
<path d="M0 14.9989V2.99997H3.93719V14.9989H0ZM9.29381 4.90966L11.5581 14.9989H7.24917L4.54549 2.99997H6.96218C7.51635 2.99278 8.05406 3.18813 8.4745 3.54927C8.89562 3.89527 9.18495 4.37558 9.29381 4.90966ZM12.1495 14.9989V2.99997H16.0867V14.9989H12.1495ZM19.0605 7.56298C18.6362 7.56712 18.2188 7.45611 17.8525 7.24185C17.4912 7.033 17.1911 6.73284 16.9823 6.37148C16.7678 6.00522 16.6568 5.58765 16.661 5.1632C16.6561 4.74135 16.7672 4.32626 16.9823 3.96331C17.1933 3.60587 17.4931 3.30898 17.8525 3.1014C18.2189 2.88739 18.6362 2.7764 19.0605 2.78027C19.4822 2.77573 19.8971 2.88681 20.2602 3.1014C20.616 3.3108 20.9127 3.60744 21.122 3.96331C21.3368 4.32636 21.4479 4.74138 21.4433 5.1632C21.4473 5.58761 21.3363 6.00511 21.122 6.37148C20.9149 6.73126 20.6179 7.03116 20.2602 7.24185C19.8971 7.45686 19.4824 7.56798 19.0605 7.56298ZM22.0516 14.9989V2.99997H25.9892V14.9989H22.0516ZM30.9737 9.55712C30.9848 9.56876 31.0693 9.70677 31.2272 9.97116C31.3851 10.2355 31.5906 10.5736 31.8439 10.9852C32.0974 11.3966 32.3649 11.8331 32.6463 12.2949C32.9278 12.7566 33.1926 13.1932 33.4408 13.6047C33.6881 14.0161 33.9697 14.4808 34.2857 14.9989H29.9598C29.6893 14.5595 29.4441 14.1623 29.2245 13.8075C29.0048 13.4526 28.7713 13.0695 28.5238 12.6582C28.2758 12.2474 28.0306 11.8474 27.7882 11.4584C27.5458 11.0693 27.3375 10.7285 27.1633 10.4359C26.9883 10.1432 26.8671 9.94601 26.7997 9.84442C26.6325 9.59233 26.5336 9.30118 26.5127 8.99943C26.5294 8.70982 26.6226 8.42986 26.7828 8.188C26.8504 8.07533 26.9743 7.87531 27.1545 7.58801C27.3348 7.30072 27.546 6.95994 27.7882 6.56561C28.0304 6.17128 28.2756 5.76849 28.5238 5.35726C28.772 4.94603 29.0056 4.56012 29.2245 4.19959C29.4445 3.83944 29.6897 3.43947 29.9598 2.9997H34.2857L30.9396 8.45838C30.8361 8.62045 30.7777 8.80723 30.7706 8.99943C30.7818 9.20121 30.8528 9.3952 30.9737 9.55712Z" fill="white"/>
<path d="M49.3135 0.835602C50.3689 1.28324 51.3281 1.93026 52.1385 2.74121C52.9495 3.55162 53.5965 4.51091 54.0441 5.56647C54.5063 6.65625 54.7404 7.82914 54.732 9.01286C54.7394 10.1913 54.5053 11.3588 54.0441 12.4432C53.5964 13.4987 52.9493 14.458 52.1385 15.2685C51.328 16.0794 50.3688 16.7264 49.3135 17.1741C48.2235 17.6361 47.0506 17.8701 45.8668 17.8618C44.683 17.8702 43.51 17.6362 42.4201 17.1741C41.3664 16.7276 40.4097 16.0804 39.6032 15.2685C38.7966 14.4562 38.1527 13.4973 37.7061 12.4432C37.2448 11.3588 37.0107 10.1913 37.0182 9.01286C37.0096 7.82913 37.2438 6.65621 37.7061 5.56647C38.1525 4.51236 38.7964 3.55337 39.6032 2.74121C40.4096 1.9292 41.3664 1.28196 42.4201 0.835602C43.51 0.373428 44.683 0.139397 45.8668 0.14793C47.0506 0.139498 48.2236 0.373525 49.3135 0.835602ZM48.6506 15.5585C49.4977 15.2036 50.2684 14.6888 50.9205 14.042C51.5726 13.3958 52.0906 12.6272 52.445 11.7804C52.8126 10.9044 52.9986 9.96287 52.9918 9.01286C52.9985 8.06295 52.8125 7.12156 52.445 6.24559C52.0893 5.39705 51.5714 4.62603 50.9205 3.97571C50.269 3.32409 49.4984 2.80365 48.6506 2.44266C47.7705 2.06911 46.8229 1.88027 45.8668 1.88783C44.9161 1.8813 43.9742 2.07015 43.0995 2.44266C42.2515 2.80358 41.4808 3.32402 40.8291 3.97571C40.1775 4.62721 39.6572 5.3978 39.2963 6.24559C38.9238 7.12027 38.7349 8.06216 38.7415 9.01286C38.7348 9.96365 38.9237 10.9057 39.2963 11.7804C39.6558 12.6265 40.1764 13.3946 40.8291 14.042C41.4813 14.6888 42.2522 15.2037 43.0995 15.5585C43.9755 15.9259 44.9169 16.1119 45.8668 16.1053C46.8222 16.113 47.7692 15.927 48.6506 15.5585ZM41.9973 10.0074C41.8722 9.88421 41.7733 9.73709 41.7064 9.57479C41.6396 9.41249 41.6061 9.23837 41.6082 9.06285C41.6039 8.88208 41.6362 8.70233 41.703 8.53433C41.7699 8.36634 41.87 8.21357 41.9973 8.08519C42.1199 7.95648 42.2679 7.85467 42.4319 7.7862C42.596 7.71774 42.7724 7.68413 42.9501 7.68749C43.1328 7.68398 43.3143 7.71739 43.4837 7.78573C43.6531 7.85407 43.807 7.95593 43.9361 8.08519C44.0678 8.21111 44.172 8.36304 44.2419 8.53134C44.3118 8.69964 44.346 8.88063 44.3423 9.06285C44.3437 9.23983 44.3083 9.41517 44.2384 9.57776C44.1684 9.74035 44.0655 9.88663 43.9361 10.0074C43.807 10.1366 43.6531 10.2385 43.4837 10.3068C43.3143 10.3751 43.1328 10.4086 42.9501 10.4051C42.7724 10.4084 42.596 10.3748 42.4319 10.3063C42.2679 10.2379 42.1199 10.1361 41.9973 10.0074ZM48.7332 7.10752C48.7443 7.07411 48.7666 7.07411 48.7998 7.10752L49.1975 8.18461C49.2044 8.21412 49.2215 8.24024 49.2457 8.25846C49.2699 8.27668 49.2998 8.28583 49.33 8.28431L50.5063 8.31717C50.5284 8.31717 50.5394 8.32573 50.5394 8.3423C50.5361 8.36514 50.5243 8.38588 50.5063 8.4003L49.6612 9.1294C49.6444 9.13419 49.6288 9.14241 49.6154 9.15353C49.602 9.16466 49.5911 9.17845 49.5833 9.19403C49.5755 9.20961 49.571 9.22664 49.5702 9.24404C49.5693 9.26144 49.5721 9.27884 49.5783 9.29511L49.8769 10.3722C49.8769 10.4274 49.86 10.455 49.8269 10.455L48.8492 9.80879C48.785 9.78609 48.7149 9.78609 48.6506 9.80879L47.7224 10.455C47.6782 10.455 47.6618 10.4274 47.673 10.3722L47.9713 9.29511C47.974 9.26255 47.9677 9.22986 47.9531 9.20064C47.9385 9.17141 47.9161 9.14677 47.8884 9.1294L47.0104 8.4003C47.0004 8.38254 46.9948 8.36267 46.9939 8.3423C46.9939 8.32573 46.9991 8.31717 47.0104 8.31717L48.1867 8.28431C48.2193 8.28767 48.252 8.27955 48.2792 8.26134C48.3064 8.24314 48.3265 8.216 48.3358 8.18461L48.7332 7.10752Z" fill="white"/>
</svg>

<svg xmlns="http://www.w3.org/2000/svg" viewBox="0 0 55 18"><path fill="#fff" d="M0 14.999V3h3.937v11.999H0Zm9.294-10.09L11.558 15H7.25L4.545 3h2.417a2.276 2.276 0 0 1 1.513.55c.42.345.71.826.819 1.36ZM12.149 15V3h3.938v11.999h-3.938Zm6.912-7.436a2.382 2.382 0 0 1-2.4-2.4 2.301 2.301 0 0 1 .321-1.2 2.41 2.41 0 0 1 3.278-.862c.356.21.653.506.862.862.215.363.326.778.321 1.2a2.35 2.35 0 0 1-.321 1.208 2.4 2.4 0 0 1-.862.87 2.3 2.3 0 0 1-1.2.322Zm2.99 7.436V3h3.938v11.999h-3.937Zm8.923-5.442c.01.012.095.15.253.414s.364.603.617 1.014a309.436 309.436 0 0 1 1.597 2.62c.247.411.529.876.845 1.394H29.96c-.27-.44-.516-.837-.736-1.192-.22-.354-.453-.738-.7-1.149-.248-.41-.493-.81-.736-1.2-.242-.389-.45-.73-.625-1.022-.175-.293-.296-.49-.363-.592A1.747 1.747 0 0 1 26.513 9c.016-.29.11-.57.27-.811.067-.113.191-.313.371-.6s.392-.628.634-1.022c.242-.395.488-.798.736-1.209l.7-1.157.736-1.2h4.326L30.94 8.458a1.08 1.08 0 0 0-.17.541c.012.202.083.396.204.558ZM49.313.836a8.915 8.915 0 0 1 4.731 4.73 8.669 8.669 0 0 1 .688 3.447 8.627 8.627 0 0 1-.688 3.43 8.92 8.92 0 0 1-4.73 4.731 8.676 8.676 0 0 1-3.447.688 8.672 8.672 0 0 1-3.447-.688 8.822 8.822 0 0 1-2.817-1.905 8.983 8.983 0 0 1-1.897-2.826 8.623 8.623 0 0 1-.688-3.43 8.664 8.664 0 0 1 .688-3.447 8.975 8.975 0 0 1 1.897-2.825A8.817 8.817 0 0 1 42.42.836a8.669 8.669 0 0 1 3.447-.688 8.672 8.672 0 0 1 3.447.688Zm-.662 14.723a7.142 7.142 0 0 0 2.27-1.517 7.022 7.022 0 0 0 2.071-5.03 7.025 7.025 0 0 0-.547-2.766 7.075 7.075 0 0 0-1.525-2.27 7.197 7.197 0 0 0-2.27-1.533 6.984 6.984 0 0 0-2.783-.555 6.941 6.941 0 0 0-2.767.555 7.196 7.196 0 0 0-3.804 3.803 6.94 6.94 0 0 0-.554 2.767c-.007.95.182 1.893.554 2.767.36.847.88 1.615 1.533 2.262a7.141 7.141 0 0 0 2.27 1.517 7.029 7.029 0 0 0 2.768.546 7.07 7.07 0 0 0 2.784-.546Zm-6.654-5.552a1.305 1.305 0 0 1-.389-.944 1.344 1.344 0 0 1 .39-.978 1.283 1.283 0 0 1 .952-.398 1.357 1.357 0 0 1 .986.398 1.315 1.315 0 0 1 .406.978 1.278 1.278 0 0 1-.406.944 1.357 1.357 0 0 1-.986.398 1.283 1.283 0 0 1-.953-.398Zm6.736-2.9c.011-.033.034-.033.067 0l.398 1.078a.13.13 0 0 0 .132.1l1.176.032c.022 0 .033.009.033.025a.09.09 0 0 1-.033.058l-.845.73a.126.126 0 0 0-.083.165l.299 1.077c0 .055-.017.083-.05.083l-.978-.646a.298.298 0 0 0-.198 0l-.929.646c-.044 0-.06-.028-.049-.083l.298-1.077a.178.178 0 0 0-.083-.166L47.01 8.4a.13.13 0 0 1-.016-.058c0-.016.005-.025.016-.025l1.177-.033a.14.14 0 0 0 .149-.1l.397-1.076Z"/></svg>
